src/images/icons/pricetag.svg

<?xml version="1.0" encoding="UTF-8"?>
<svg width="73px" height="73px" viewBox="0 0 73 73" version="1.1" xmlns="http://www.w3.org/2000/svg" xmlns:xlink="http://www.w3.org/1999/xlink">
    <!-- Generator: Sketch 51.2 (57519) - http://www.bohemiancoding.com/sketch -->
    <title>Group</title>
    <desc>Created with Sketch.</desc>
    <defs></defs>
    <g id="Page-3" stroke="none" stroke-width="1" fill="none" fill-rule="evenodd">
        <g id="Artboard-25" transform="translate(-17.000000, -20.000000)">
            <g id="Group" transform="translate(18.000000, 21.000000)">
                <path d="M68.271,0.5 L41.209,0.5 C39.979,0.5 38.276,1.206 37.404,2.076 L1.155,38.324 C0.285,39.194 0.285,40.604 1.155,41.477 L29.524,69.842 C30.394,70.713 31.805,70.713 32.675,69.842 L68.924,33.596 C69.794,32.725 70.5,31.021 70.5,29.791 L70.501,2.729 C70.5,1.499 69.502,0.5 68.271,0.5 Z" id="Stroke-1136" stroke="#8C8C8C" stroke-width="3"></path>
                <path d="M47.5156,26.3359 L45.2646,28.5869 C47.1636,31.2059 47.6496,34.1339 46.5376,36.6279 C46.4246,36.8829 46.1156,36.9739 45.8716,36.8429 L42.3186,34.9369 C42.0736,34.8049 41.9876,34.4989 42.0476,34.2269 C42.2666,33.2119 41.6746,31.9019 40.3876,30.6139 C39.7176,29.9449 37.4076,27.8899 35.7536,29.5439 C34.0986,31.1979 36.1536,33.5089 36.8216,34.1799 C40.6596,38.0159 41.0886,42.7429 37.8906,45.9419 C35.1076,48.7229 31.1656,48.7559 27.6626,46.1889 L25.4136,48.4359 C25.2176,48.6329 24.8986,48.6329 24.7026,48.4359 L22.5636,46.2969 C22.3666,46.1009 22.3656,45.7809 22.5636,45.5839 L24.8146,43.3329 C22.9156,40.7129 22.4296,37.7849 23.5406,35.2909 C23.6536,35.0389 23.9626,34.9459 24.2076,35.0769 L27.7616,36.9839 C28.0056,37.1139 28.0916,37.4219 28.0316,37.6939 C27.8136,38.7099 28.4036,40.0179 29.6916,41.3059 C30.3606,41.9749 32.6716,44.0299 34.3256,42.3759 C35.9796,40.7229 33.9266,38.4099 33.2576,37.7409 C29.4196,33.9039 28.9906,29.1779 32.1886,25.9789 C34.9716,23.1959 38.9116,23.1629 42.4166,25.7309 L44.6636,23.4839 C44.8606,23.2879 45.1806,23.2879 45.3766,23.4839 L47.5156,25.6229 C47.7126,25.8209 47.7126,26.1399 47.5156,26.3359" id="Fill-1138" fill="#7490B1"></path>
                <path d="M62.1626,15.8032 C60.2396,17.7282 57.1206,17.7282 55.1966,15.8032 C53.2736,13.8802 53.2736,10.7602 55.1966,8.8372 C57.1206,6.9132 60.2396,6.9132 62.1626,8.8372 C64.0876,10.7592 64.0856,13.8802 62.1626,15.8032 Z" id="Stroke-1140" stroke="#8C8C8C" stroke-width="3"></path>
            </g>
        </g>
    </g>
</svg>

<svg height="73" viewBox="0 0 73 73" width="73" xmlns="http://www.w3.org/2000/svg"><g fill="none" fill-rule="evenodd" transform="translate(1 1)"><path d="m68.271.5h-27.062c-1.23 0-2.933.706-3.805 1.576l-36.249 36.248c-.87.87-.87 2.28 0 3.153l28.369 28.365c.87.871 2.281.871 3.151 0l36.249-36.246c.87-.871 1.576-2.575 1.576-3.805l.001-27.062c-.001-1.23-.999-2.229-2.23-2.229z" stroke="#8c8c8c" stroke-width="3"/><path d="m47.5156 26.3359-2.251 2.251c1.899 2.619 2.385 5.547 1.273 8.041-.113.255-.422.346-.666.215l-3.553-1.906c-.245-.132-.331-.438-.271-.71.219-1.015-.373-2.325-1.66-3.613-.67-.669-2.98-2.724-4.634-1.07-1.655 1.654.4 3.965 1.068 4.636 3.838 3.836 4.267 8.563 1.069 11.762-2.783 2.781-6.725 2.814-10.228.247l-2.249 2.247c-.196.197-.515.197-.711 0l-2.139-2.139c-.197-.196-.198-.516 0-.713l2.251-2.251c-1.899-2.62-2.385-5.548-1.274-8.042.113-.252.422-.345.667-.214l3.554 1.907c.244.13.33.438.27.71-.218 1.016.372 2.324 1.66 3.612.669.669 2.98 2.724 4.634 1.07 1.654-1.653-.399-3.966-1.068-4.635-3.838-3.837-4.267-8.563-1.069-11.762 2.783-2.783 6.723-2.816 10.228-.248l2.247-2.247c.197-.196.517-.196.713 0l2.139 2.139c.197.198.197.517 0 .713" fill="#7490b1"/><path d="m62.1626 15.8032c-1.923 1.925-5.042 1.925-6.966 0-1.923-1.923-1.923-5.043 0-6.966 1.924-1.924 5.043-1.924 6.966 0 1.925 1.922 1.923 5.043 0 6.966z" stroke="#8c8c8c" stroke-width="3"/></g></svg>
